X: 29097
T: Nele's
R: reel
M: 4/4
K: Amajor
AFEc B3c|A3F FEEF|AFEc B3=c|^ceec A3F|
AFEc B3c|A3F FEEF|AFEc B3A|BFFE F3z:|
f3e faaf|ecAc B3A|BFFE F3A|ceec A3e|
f3e faaf|ecAc B3=c|^ceec B2AB|ceec A3e|
f3e faaf|ecAc B3A|BFFE F3A|ceec A3e|
f3e faaf|ecAc B2cd|ea2e faaf|ecBc A3z|

